report_00007_2020-12-11T15:55:29.892Z/server-response-time/comparison/line/3_vs_4.svg

<svg width="640" height="500" xmlns="http://www.w3.org/2000/svg" xmlns:xlink="http://www.w3.org/1999/xlink"><path fill="#fff" d="M0 0h640v500H0z"/><defs><path id="d" stroke-width=".222" stroke="currentColor" d="M-1-1h2v2h-2z"/><path id="b" stroke-width=".222" stroke="currentColor" d="M0-1.33l-1.33 2h2.66z"/><path id="f" stroke-width=".222" stroke="currentColor" d="M0 1.33L1.265.411.782-1.067l-1.564-.009-.483 1.487z"/><use xlink:href="#b" id="c" stroke="currentColor" transform="rotate(180)"/><use xlink:href="#d" id="e" stroke="currentColor" transform="rotate(45)"/><circle id="a" stroke-width=".222" stroke="currentColor" cx="0" cy="0" r="1"/></defs><g fill="none" color="#000" stroke="currentColor"><path stroke="#000" d="M53.9 444.2h9m552.1 0h-9"/><text transform="translate(45.6 448.1)" stroke="none" fill="#000" font-family="Arial" font-size="12" text-anchor="end"><tspan>1.2</tspan></text></g><g fill="none" color="#000" stroke="currentColor"><path stroke="#000" d="M53.9 372.4h9m552.1 0h-9"/><text transform="translate(45.6 376.3)" stroke="none" fill="#000" font-family="Arial" font-size="12" text-anchor="end"><tspan>1.4</tspan></text></g><g fill="none" color="#000" stroke="currentColor"><path stroke="#000" d="M53.9 300.5h9m552.1 0h-9"/><text transform="translate(45.6 304.4)" stroke="none" fill="#000" font-family="Arial" font-size="12" text-anchor="end"><tspan>1.6</tspan></text></g><g fill="none" color="#000" stroke="currentColor"><path stroke="#000" d="M53.9 228.6h9m552.1 0h-9"/><text transform="translate(45.6 232.5)" stroke="none" fill="#000" font-family="Arial" font-size="12" text-anchor="end"><tspan>1.8</tspan></text></g><g fill="none" color="#000" stroke="currentColor"><path stroke="#000" d="M53.9 156.8h9m552.1 0h-9"/><text transform="translate(45.6 160.7)" stroke="none" fill="#000" font-family="Arial" font-size="12" text-anchor="end"><tspan>2</tspan></text></g><g fill="none" color="#000" stroke="currentColor"><path stroke="#000" d="M53.9 84.9h9m552.1 0h-9"/><text transform="translate(45.6 88.8)" stroke="none" fill="#000" font-family="Arial" font-size="12" text-anchor="end"><tspan>2.2</tspan></text></g><g fill="none" color="#000" stroke="currentColor"><path stroke="#000" d="M53.9 446v-9m0-418.9v9"/><text transform="translate(53.9 467.9)" stroke="none" fill="#000" font-family="Arial" font-size="12" text-anchor="middle"><tspan>0</tspan></text></g><g fill="none" color="#000" stroke="currentColor"><path stroke="#000" d="M110.6 446v-9m0-418.9v9"/><text transform="translate(110.6 467.9)" stroke="none" fill="#000" font-family="Arial" font-size="12" text-anchor="middle"><tspan>10</tspan></text></g><g fill="none" color="#000" stroke="currentColor"><path stroke="#000" d="M167.3 446v-9m0-418.9v9"/><text transform="translate(167.3 467.9)" stroke="none" fill="#000" font-family="Arial" font-size="12" text-anchor="middle"><tspan>20</tspan></text></g><g fill="none" color="#000" stroke="currentColor"><path stroke="#000" d="M223.9 446v-9m0-418.9v9"/><text transform="translate(223.9 467.9)" stroke="none" fill="#000" font-family="Arial" font-size="12" text-anchor="middle"><tspan>30</tspan></text></g><g fill="none" color="#000" stroke="currentColor"><path stroke="#000" d="M280.6 446v-9m0-418.9v9"/><text transform="translate(280.6 467.9)" stroke="none" fill="#000" font-family="Arial" font-size="12" text-anchor="middle"><tspan>40</tspan></text></g><g fill="none" color="#000" stroke="currentColor"><path stroke="#000" d="M337.3 446v-9m0-418.9v9"/><text transform="translate(337.3 467.9)" stroke="none" fill="#000" font-family="Arial" font-size="12" text-anchor="middle"><tspan>50</tspan></text></g><g fill="none" color="#000" stroke="currentColor"><path stroke="#000" d="M394 446v-9m0-418.9v9"/><text transform="translate(394 467.9)" stroke="none" fill="#000" font-family="Arial" font-size="12" text-anchor="middle"><tspan>60</tspan></text></g><g fill="none" color="#000" stroke="currentColor"><path stroke="#000" d="M450.6 446v-9m0-418.9v9"/><text transform="translate(450.6 467.9)" stroke="none" fill="#000" font-family="Arial" font-size="12" text-anchor="middle"><tspan>70</tspan></text></g><g fill="none" color="#000" stroke="currentColor"><path stroke="#000" d="M507.3 446v-9m0-418.9v9"/><text transform="translate(507.3 467.9)" stroke="none" fill="#000" font-family="Arial" font-size="12" text-anchor="middle"><tspan>80</tspan></text></g><g fill="none" color="#000" stroke="currentColor"><path stroke="#000" d="M564 446v-9m0-418.9v9"/><text transform="translate(564 467.9)" stroke="none" fill="#000" font-family="Arial" font-size="12" text-anchor="middle"><tspan>90</tspan></text></g><path stroke="#000" d="M53.9 18.1V446H615V18.1H53.9z" fill="none" color="#000"/><text transform="translate(275.6 485.9)" stroke="none" fill="#000" font-family="Arial" font-size="12" text-anchor="end" color="#000"><tspan>pages+cached+nointeractive</tspan></text><path stroke="#9400D3" d="M283.9 482h42.2M53.9 281.5l5.7-12.6 5.6 88.7 5.7 11.2 5.7-2.9 5.6 23.7 5.7-43.5 5.7-6.4 5.6 48.1 5.7-12.9 5.7 2.1 5.6-304.3 5.7 246.5 5.7-25.9 5.6 105.3 5.7-160.6 5.7 128.6 5.7-17.2 5.6 23.7 5.7 41.7 5.7-112.9 5.6 58.3 5.7 32.3 5.7-143.7 5.6 4.3 5.7 65.7 5.7 33.4 5.6 2.6 5.7 42 5.7-154.1 5.6-4.4 5.7 19.8 5.7 140.9 5.6-69.7 5.7-50.4 5.7 85.9 5.6-108.1 5.7 54.9 5.7-29.4 5.6-10.1 5.7-18.3 5.7 95.2 5.6 47.1 5.7-63.6 5.7-15.1 5.6 25.5 5.7 39.5 5.7-38.8 5.6 13 5.7 7.1 5.7 59.7 5.7-113.2 5.6 104.6 5.7-73.3 5.7 19.4 5.6 36.6 5.7-27.6 5.7-89.2 5.6-92.3 5.7 203.7 5.7-60.3 5.6 44.9 5.7-157.4 5.7 107.1 5.6 42 5.7 28 5.7-78.3 5.6 81.2 5.7-91.6 5.7-51.8 5.6 74.1 5.7-21.6 5.7 20.5 5.6 75.5 5.7-115 5.7 64.3 5.6-2.5 5.7 18.7 5.7 17.2 5.6 50.7 5.7-320.9 5.7 281.3 5.6-20.4 5.7-198 5.7 31.6 5.7 89.1 5.6 110.3 5.7-37.7 5.7-134.4 5.6-212.4 5.7 326.3 5.7-7.5 5.6-75.1 5.7 127.5 5.7-40.2 5.6-111.8 5.7 105 5.7-21.6 5.6 76.2 5.7-196.9" fill="none" color="#000"/><text transform="translate(550.2 485.9)" stroke="none" fill="#000" font-family="Arial" font-size="12" text-anchor="end" color="#000"><tspan>pages+cached+noadtech</tspan></text><path stroke="#009E73" d="M558.5 482h42.2M53.9 183.4l5.7 86.2 5.6 8.3 5.7-179.3 5.7 280.6 5.6-142.3 5.7 1.1 5.7 125.7 5.6-74.7 5.7 80.1 5.7-7.9 5.6-111 5.7 26.6 5.7 125 5.6-19.4 5.7-115.7 5.7 113.6 5.7-10.8 5.6-101.3 5.7 68.6 5.7-92.7 5.6-57.5 5.7 212.4 5.7-116.1 5.6 57.5 5.7-185.4 5.7 224.2 5.6-138.3 5.7 130.4 5.7-65 5.6-192.3 5.7 292.1 5.7-218.1 5.6 212.8 5.7-143.1 5.7-137.2 5.6 233.9 5.7-60.7 5.7-118.6 5.6 187.6 5.7-22 5.7-80.1 5.6 137.6 5.7-136.5 5.7 114.6 5.6 19.1 5.7-111.1 5.7-200.8 5.6 291.4 5.7 16.2 5.7-223.6 5.7 211.3 5.6-76.9 5.7-87.6 5.7 177.5 5.6-22.3 5.7-58.9 5.7 37.7 5.6-158.1 5.7 186.1 5.7-148.7 5.6 136.5 5.7 3.6 5.7-162.8 5.6 171.8 5.7 15.8 5.7-157.4 5.6 86.6 5.7-69.3 5.7-55 5.6 83.7 5.7 49.2L462 81.7l5.6 175 5.7-33.5 5.7 17.7 5.6-107.5 5.7 139.8 5.7 117.5 5.6 21.9 5.7-176.4 5.7 127.9 5.6-5.7 5.7-186.5L530 298l5.7 51.4 5.6-88.4 5.7 130.4 5.7-46.3 5.6-74.4 5.7 27.6 5.7 91 5.6-134.8 5.7 133.7 5.7 19.4 5.6-302.6 5.7 249 5.7-30.1 5.6-66.2L615 42.1" fill="none" color="#000"/><g fill="none" color="#000" stroke="currentColor"><path stroke="#000" d="M53.9 18.1V446H615V18.1H53.9z"/></g></svg>

<?xml version="1.0" encoding="utf-8"  standalone="no"?>
<svg 
 width="640" height="500"
 viewBox="0 0 640 500"
 xmlns="http://www.w3.org/2000/svg"
 xmlns:xlink="http://www.w3.org/1999/xlink"
>

<title>Gnuplot</title>
<desc>Produced by GNUPLOT 5.4 patchlevel 0 </desc>

<g id="gnuplot_canvas">

<rect x="0" y="0" width="640" height="500" fill="#ffffff"/>
<defs>

	<circle id='gpDot' r='0.5' stroke-width='0.5' stroke='currentColor'/>
	<path id='gpPt0' stroke-width='0.222' stroke='currentColor' d='M-1,0 h2 M0,-1 v2'/>
	<path id='gpPt1' stroke-width='0.222' stroke='currentColor' d='M-1,-1 L1,1 M1,-1 L-1,1'/>
	<path id='gpPt2' stroke-width='0.222' stroke='currentColor' d='M-1,0 L1,0 M0,-1 L0,1 M-1,-1 L1,1 M-1,1 L1,-1'/>
	<rect id='gpPt3' stroke-width='0.222' stroke='currentColor' x='-1' y='-1' width='2' height='2'/>
	<rect id='gpPt4' stroke-width='0.222' stroke='currentColor' fill='currentColor' x='-1' y='-1' width='2' height='2'/>
	<circle id='gpPt5' stroke-width='0.222' stroke='currentColor' cx='0' cy='0' r='1'/>
	<use xlink:href='#gpPt5' id='gpPt6' fill='currentColor' stroke='none'/>
	<path id='gpPt7' stroke-width='0.222' stroke='currentColor' d='M0,-1.33 L-1.33,0.67 L1.33,0.67 z'/>
	<use xlink:href='#gpPt7' id='gpPt8' fill='currentColor' stroke='none'/>
	<use xlink:href='#gpPt7' id='gpPt9' stroke='currentColor' transform='rotate(180)'/>
	<use xlink:href='#gpPt9' id='gpPt10' fill='currentColor' stroke='none'/>
	<use xlink:href='#gpPt3' id='gpPt11' stroke='currentColor' transform='rotate(45)'/>
	<use xlink:href='#gpPt11' id='gpPt12' fill='currentColor' stroke='none'/>
	<path id='gpPt13' stroke-width='0.222' stroke='currentColor' d='M0,1.330 L1.265,0.411 L0.782,-1.067 L-0.782,-1.076 L-1.265,0.411 z'/>
	<use xlink:href='#gpPt13' id='gpPt14' fill='currentColor' stroke='none'/>
	<filter id='textbox' filterUnits='objectBoundingBox' x='0' y='0' height='1' width='1'>
	  <feFlood flood-color='#FFFFFF' flood-opacity='1' result='bgnd'/>
	  <feComposite in='SourceGraphic' in2='bgnd' operator='atop'/>
	</filter>
	<filter id='greybox' filterUnits='objectBoundingBox' x='0' y='0' height='1' width='1'>
	  <feFlood flood-color='lightgrey' flood-opacity='1' result='grey'/>
	  <feComposite in='SourceGraphic' in2='grey' operator='atop'/>
	</filter>
</defs>
<g fill="none" color="#FFFFFF" stroke="black" stroke-width="1.00" stroke-linecap="butt" stroke-linejoin="miter">
</g>
<g fill="none" color="black" stroke="currentColor" stroke-width="1.00" stroke-linecap="butt" stroke-linejoin="miter">
	<path stroke='black'  d='M53.9,444.2 L62.9,444.2 M615.0,444.2 L606.0,444.2  '/>	<g transform="translate(45.6,448.1)" stroke="none" fill="black" font-family="Arial" font-size="12.00"  text-anchor="end">
		<text><tspan font-family="Arial" > 1.2</tspan></text>
	</g>
</g>
<g fill="none" color="black" stroke="currentColor" stroke-width="1.00" stroke-linecap="butt" stroke-linejoin="miter">
	<path stroke='black'  d='M53.9,372.4 L62.9,372.4 M615.0,372.4 L606.0,372.4  '/>	<g transform="translate(45.6,376.3)" stroke="none" fill="black" font-family="Arial" font-size="12.00"  text-anchor="end">
		<text><tspan font-family="Arial" > 1.4</tspan></text>
	</g>
</g>
<g fill="none" color="black" stroke="currentColor" stroke-width="1.00" stroke-linecap="butt" stroke-linejoin="miter">
	<path stroke='black'  d='M53.9,300.5 L62.9,300.5 M615.0,300.5 L606.0,300.5  '/>	<g transform="translate(45.6,304.4)" stroke="none" fill="black" font-family="Arial" font-size="12.00"  text-anchor="end">
		<text><tspan font-family="Arial" > 1.6</tspan></text>
	</g>
</g>
<g fill="none" color="black" stroke="currentColor" stroke-width="1.00" stroke-linecap="butt" stroke-linejoin="miter">
	<path stroke='black'  d='M53.9,228.6 L62.9,228.6 M615.0,228.6 L606.0,228.6  '/>	<g transform="translate(45.6,232.5)" stroke="none" fill="black" font-family="Arial" font-size="12.00"  text-anchor="end">
		<text><tspan font-family="Arial" > 1.8</tspan></text>
	</g>
</g>
<g fill="none" color="black" stroke="currentColor" stroke-width="1.00" stroke-linecap="butt" stroke-linejoin="miter">
	<path stroke='black'  d='M53.9,156.8 L62.9,156.8 M615.0,156.8 L606.0,156.8  '/>	<g transform="translate(45.6,160.7)" stroke="none" fill="black" font-family="Arial" font-size="12.00"  text-anchor="end">
		<text><tspan font-family="Arial" > 2</tspan></text>
	</g>
</g>
<g fill="none" color="black" stroke="currentColor" stroke-width="1.00" stroke-linecap="butt" stroke-linejoin="miter">
	<path stroke='black'  d='M53.9,84.9 L62.9,84.9 M615.0,84.9 L606.0,84.9  '/>	<g transform="translate(45.6,88.8)" stroke="none" fill="black" font-family="Arial" font-size="12.00"  text-anchor="end">
		<text><tspan font-family="Arial" > 2.2</tspan></text>
	</g>
</g>
<g fill="none" color="black" stroke="currentColor" stroke-width="1.00" stroke-linecap="butt" stroke-linejoin="miter">
	<path stroke='black'  d='M53.9,446.0 L53.9,437.0 M53.9,18.1 L53.9,27.1  '/>	<g transform="translate(53.9,467.9)" stroke="none" fill="black" font-family="Arial" font-size="12.00"  text-anchor="middle">
		<text><tspan font-family="Arial" > 0</tspan></text>
	</g>
</g>
<g fill="none" color="black" stroke="currentColor" stroke-width="1.00" stroke-linecap="butt" stroke-linejoin="miter">
	<path stroke='black'  d='M110.6,446.0 L110.6,437.0 M110.6,18.1 L110.6,27.1  '/>	<g transform="translate(110.6,467.9)" stroke="none" fill="black" font-family="Arial" font-size="12.00"  text-anchor="middle">
		<text><tspan font-family="Arial" > 10</tspan></text>
	</g>
</g>
<g fill="none" color="black" stroke="currentColor" stroke-width="1.00" stroke-linecap="butt" stroke-linejoin="miter">
	<path stroke='black'  d='M167.3,446.0 L167.3,437.0 M167.3,18.1 L167.3,27.1  '/>	<g transform="translate(167.3,467.9)" stroke="none" fill="black" font-family="Arial" font-size="12.00"  text-anchor="middle">
		<text><tspan font-family="Arial" > 20</tspan></text>
	</g>
</g>
<g fill="none" color="black" stroke="currentColor" stroke-width="1.00" stroke-linecap="butt" stroke-linejoin="miter">
	<path stroke='black'  d='M223.9,446.0 L223.9,437.0 M223.9,18.1 L223.9,27.1  '/>	<g transform="translate(223.9,467.9)" stroke="none" fill="black" font-family="Arial" font-size="12.00"  text-anchor="middle">
		<text><tspan font-family="Arial" > 30</tspan></text>
	</g>
</g>
<g fill="none" color="black" stroke="currentColor" stroke-width="1.00" stroke-linecap="butt" stroke-linejoin="miter">
	<path stroke='black'  d='M280.6,446.0 L280.6,437.0 M280.6,18.1 L280.6,27.1  '/>	<g transform="translate(280.6,467.9)" stroke="none" fill="black" font-family="Arial" font-size="12.00"  text-anchor="middle">
		<text><tspan font-family="Arial" > 40</tspan></text>
	</g>
</g>
<g fill="none" color="black" stroke="currentColor" stroke-width="1.00" stroke-linecap="butt" stroke-linejoin="miter">
	<path stroke='black'  d='M337.3,446.0 L337.3,437.0 M337.3,18.1 L337.3,27.1  '/>	<g transform="translate(337.3,467.9)" stroke="none" fill="black" font-family="Arial" font-size="12.00"  text-anchor="middle">
		<text><tspan font-family="Arial" > 50</tspan></text>
	</g>
</g>
<g fill="none" color="black" stroke="currentColor" stroke-width="1.00" stroke-linecap="butt" stroke-linejoin="miter">
	<path stroke='black'  d='M394.0,446.0 L394.0,437.0 M394.0,18.1 L394.0,27.1  '/>	<g transform="translate(394.0,467.9)" stroke="none" fill="black" font-family="Arial" font-size="12.00"  text-anchor="middle">
		<text><tspan font-family="Arial" > 60</tspan></text>
	</g>
</g>
<g fill="none" color="black" stroke="currentColor" stroke-width="1.00" stroke-linecap="butt" stroke-linejoin="miter">
	<path stroke='black'  d='M450.6,446.0 L450.6,437.0 M450.6,18.1 L450.6,27.1  '/>	<g transform="translate(450.6,467.9)" stroke="none" fill="black" font-family="Arial" font-size="12.00"  text-anchor="middle">
		<text><tspan font-family="Arial" > 70</tspan></text>
	</g>
</g>
<g fill="none" color="black" stroke="currentColor" stroke-width="1.00" stroke-linecap="butt" stroke-linejoin="miter">
	<path stroke='black'  d='M507.3,446.0 L507.3,437.0 M507.3,18.1 L507.3,27.1  '/>	<g transform="translate(507.3,467.9)" stroke="none" fill="black" font-family="Arial" font-size="12.00"  text-anchor="middle">
		<text><tspan font-family="Arial" > 80</tspan></text>
	</g>
</g>
<g fill="none" color="black" stroke="currentColor" stroke-width="1.00" stroke-linecap="butt" stroke-linejoin="miter">
	<path stroke='black'  d='M564.0,446.0 L564.0,437.0 M564.0,18.1 L564.0,27.1  '/>	<g transform="translate(564.0,467.9)" stroke="none" fill="black" font-family="Arial" font-size="12.00"  text-anchor="middle">
		<text><tspan font-family="Arial" > 90</tspan></text>
	</g>
</g>
<g fill="none" color="black" stroke="currentColor" stroke-width="1.00" stroke-linecap="butt" stroke-linejoin="miter">
</g>
<g fill="none" color="black" stroke="currentColor" stroke-width="1.00" stroke-linecap="butt" stroke-linejoin="miter">
	<path stroke='black'  d='M53.9,18.1 L53.9,446.0 L615.0,446.0 L615.0,18.1 L53.9,18.1 Z  '/></g>
<g fill="none" color="black" stroke="currentColor" stroke-width="1.00" stroke-linecap="butt" stroke-linejoin="miter">
</g>
	<g id="gnuplot_plot_1" ><title>pages+cached+nointeractive</title>
<g fill="none" color="black" stroke="currentColor" stroke-width="1.00" stroke-linecap="butt" stroke-linejoin="miter">
	<g transform="translate(275.6,485.9)" stroke="none" fill="black" font-family="Arial" font-size="12.00"  text-anchor="end">
		<text><tspan font-family="Arial" >pages+cached+nointeractive</tspan></text>
	</g>
</g>
<g fill="none" color="black" stroke="currentColor" stroke-width="1.00" stroke-linecap="butt" stroke-linejoin="miter">
	<path stroke='rgb(148,   0, 211)'  d='M283.9,482.0 L326.1,482.0 M53.9,281.5 L59.6,268.9 L65.2,357.6 L70.9,368.8 L76.6,365.9 L82.2,389.6
		L87.9,346.1 L93.6,339.7 L99.2,387.8 L104.9,374.9 L110.6,377.0 L116.2,72.7 L121.9,319.2 L127.6,293.3
		L133.2,398.6 L138.9,238.0 L144.6,366.6 L150.3,349.4 L155.9,373.1 L161.6,414.8 L167.3,301.9 L172.9,360.2
		L178.6,392.5 L184.3,248.8 L189.9,253.1 L195.6,318.8 L201.3,352.2 L206.9,354.8 L212.6,396.8 L218.3,242.7
		L223.9,238.3 L229.6,258.1 L235.3,399.0 L240.9,329.3 L246.6,278.9 L252.3,364.8 L257.9,256.7 L263.6,311.6
		L269.3,282.2 L274.9,272.1 L280.6,253.8 L286.3,349.0 L291.9,396.1 L297.6,332.5 L303.3,317.4 L308.9,342.9
		L314.6,382.4 L320.3,343.6 L325.9,356.6 L331.6,363.7 L337.3,423.4 L343.0,310.2 L348.6,414.8 L354.3,341.5
		L360.0,360.9 L365.6,397.5 L371.3,369.9 L377.0,280.7 L382.6,188.4 L388.3,392.1 L394.0,331.8 L399.6,376.7
		L405.3,219.3 L411.0,326.4 L416.6,368.4 L422.3,396.4 L428.0,318.1 L433.6,399.3 L439.3,307.7 L445.0,255.9
		L450.6,330.0 L456.3,308.4 L462.0,328.9 L467.6,404.4 L473.3,289.4 L479.0,353.7 L484.6,351.2 L490.3,369.9
		L496.0,387.1 L501.6,437.8 L507.3,116.9 L513.0,398.2 L518.6,377.8 L524.3,179.8 L530.0,211.4 L535.7,300.5
		L541.3,410.8 L547.0,373.1 L552.7,238.7 L558.3,26.3 L564.0,352.6 L569.7,345.1 L575.3,270.0 L581.0,397.5
		L586.7,357.3 L592.3,245.5 L598.0,350.5 L603.7,328.9 L609.3,405.1 L615.0,208.2  '/></g>
	</g>
	<g id="gnuplot_plot_2" ><title>pages+cached+noadtech</title>
<g fill="none" color="black" stroke="currentColor" stroke-width="1.00" stroke-linecap="butt" stroke-linejoin="miter">
	<g transform="translate(550.2,485.9)" stroke="none" fill="black" font-family="Arial" font-size="12.00"  text-anchor="end">
		<text><tspan font-family="Arial" >pages+cached+noadtech</tspan></text>
	</g>
</g>
<g fill="none" color="black" stroke="currentColor" stroke-width="1.00" stroke-linecap="butt" stroke-linejoin="miter">
	<path stroke='rgb(  0, 158, 115)'  d='M558.5,482.0 L600.7,482.0 M53.9,183.4 L59.6,269.6 L65.2,277.9 L70.9,98.6 L76.6,379.2 L82.2,236.9
		L87.9,238.0 L93.6,363.7 L99.2,289.0 L104.9,369.1 L110.6,361.2 L116.2,250.2 L121.9,276.8 L127.6,401.8
		L133.2,382.4 L138.9,266.7 L144.6,380.3 L150.3,369.5 L155.9,268.2 L161.6,336.8 L167.3,244.1 L172.9,186.6
		L178.6,399.0 L184.3,282.9 L189.9,340.4 L195.6,155.0 L201.3,379.2 L206.9,240.9 L212.6,371.3 L218.3,306.3
		L223.9,114.0 L229.6,406.1 L235.3,188.0 L240.9,400.8 L246.6,257.7 L252.3,120.5 L257.9,354.4 L263.6,293.7
		L269.3,175.1 L274.9,362.7 L280.6,340.7 L286.3,260.6 L291.9,398.2 L297.6,261.7 L303.3,376.3 L308.9,395.4
		L314.6,284.3 L320.3,83.5 L325.9,374.9 L331.6,391.1 L337.3,167.5 L343.0,378.8 L348.6,301.9 L354.3,214.3
		L360.0,391.8 L365.6,369.5 L371.3,310.6 L377.0,348.3 L382.6,190.2 L388.3,376.3 L394.0,227.6 L399.6,364.1
		L405.3,367.7 L411.0,204.9 L416.6,376.7 L422.3,392.5 L428.0,235.1 L433.6,321.7 L439.3,252.4 L445.0,197.4
		L450.6,281.1 L456.3,330.3 L462.0,81.7 L467.6,256.7 L473.3,223.2 L479.0,240.9 L484.6,133.4 L490.3,273.2
		L496.0,390.7 L501.6,412.6 L507.3,236.2 L513.0,364.1 L518.6,358.4 L524.3,171.9 L530.0,298.0 L535.7,349.4
		L541.3,261.0 L547.0,391.4 L552.7,345.1 L558.3,270.7 L564.0,298.3 L569.7,389.3 L575.3,254.5 L581.0,388.2
		L586.7,407.6 L592.3,105.0 L598.0,354.0 L603.7,323.9 L609.3,257.7 L615.0,42.1  '/></g>
	</g>
<g fill="none" color="#FFFFFF" stroke="rgb(  0, 158, 115)" stroke-width="2.00" stroke-linecap="butt" stroke-linejoin="miter">
</g>
<g fill="none" color="black" stroke="currentColor" stroke-width="2.00" stroke-linecap="butt" stroke-linejoin="miter">
</g>
<g fill="none" color="black" stroke="black" stroke-width="1.00" stroke-linecap="butt" stroke-linejoin="miter">
</g>
<g fill="none" color="black" stroke="currentColor" stroke-width="1.00" stroke-linecap="butt" stroke-linejoin="miter">
	<path stroke='black'  d='M53.9,18.1 L53.9,446.0 L615.0,446.0 L615.0,18.1 L53.9,18.1 Z  '/></g>
<g fill="none" color="black" stroke="currentColor" stroke-width="1.00" stroke-linecap="butt" stroke-linejoin="miter">
</g>
</g>
</svg>
